X: 1
T: Further Along The Line
Z: Mr G. Cunningham
S: https://thesession.org/tunes/15389#setting28770
R: reel
M: 4/4
L: 1/8
K: Gmaj
G,B,DE GABd|eg (3ggg ge d z|edBc dBGB|ABAG EGDB,|
G,B,DE GABd|egfa gedg|edBc dBGB|1AGED G4:|2AGED G3 F|
|:E3 F G3 A|B3 d effe|fgfe d^cdB|ABAF DFAF|
E3 F GFGA|B3 d effe|fgfe d^cdA|1Beed e2 e2:|2Beed e2 fg|
|:agfa gfeg|fe^ce dBAF|GFGA BAB^c|d^cde [eA]2 a2-|
-agfa gfeg|fe^ce dBAF|GFGA B^cdB|1AFEF D2 fg:|2AFEF D4||
